Adwaita++-Light/panel/16/si-syncthing-7.svg

<svg height="16" width="16" xmlns="http://www.w3.org/2000/svg">
  <path d="m8 15a7 7 0 0 0 7-7 7 7 0 0 0 -6.9999998-6.9999999 7 7 0 0 0 -7.0000001 6.9999999 7 7 0 0 0 6.9999999 7zm.0000001-2a5 5 0 0 1 -4.9082029-4.0566402 1.5 1.5 0 0 1 -1.0917964-1.4433598 1.5 1.5 0 0 1 1.4218743-1.4960931 5 5 0 0 1 2.5820316-2.5859375 1.5 1.5 0 0 1 1.4960939-1.4179688 1.5 1.5 0 0 1 1.4433593 1.0937498 5 5 0 0 1 4.0566401 4.9062495 5 5 0 0 1 -.002.08594 1.5 1.5 0 0 1 1.001952 1.4140617 1.5 1.5 0 0 1 -1.5 1.5000003 1.5 1.5 0 0 1 -.455079-.07227 5 5 0 0 1 -4.0448729 2.0722681zm-.0000002-1a4 4 0 0 0 3.2480481-1.673827 1.5 1.5 0 0 1 -.248048-.8261733 1.5 1.5 0 0 1 .0039-.060545l-2.3769467-.9511734a1.5 1.5 0 0 1 -1.1269531.5117187 1.5 1.5 0 0 1 -1.4121094-1h-1.1757816a1.5 1.5 0 0 1 -.810546.871094 4 4 0 0 0 3.8984367 3.128906zm3.3750011-3.4882806a1.5 1.5 0 0 1 .621093-.4218754 4 4 0 0 0 .003906-.0898439 4 4 0 0 0 -3.1269528-3.9003908 1.5 1.5 0 0 1 -.8730471.8124997l.0000001 1.1757817a1.5 1.5 0 0 1 1 1.4121093 1.5 1.5 0 0 1 -.00391.060548zm-5.2871099-1.5117193a1.5 1.5 0 0 1 .9121092-.9121092l-.0000003-1.1757819a1.5 1.5 0 0 1 -.7050776-.5253896 4 4 0 0 0 -1.90625 1.9062495 1.5 1.5 0 0 1 .5234334.7070332z" fill="#444"/>
</svg>

<svg xmlns="http://www.w3.org/2000/svg" width="16" height="16" version="1.1">
 <defs>
  <style id="current-color-scheme" type="text/css">
   .ColorScheme-Text { color:#444444; } .ColorScheme-Highlight { color:#4285f4; }
  </style>
 </defs>
 <path style="fill:currentColor" class="ColorScheme-Text" d="M 8,15 A 7,7 0 0 0 15,8 7,7 0 0 0 8.0000002,1.0000001 7,7 0 0 0 1.0000001,8 7,7 0 0 0 8,15 Z m 10e-8,-2 A 5,5 0 0 1 3.0917972,8.9433598 1.5,1.5 0 0 1 2.0000008,7.5 1.5,1.5 0 0 1 3.4218751,6.0039069 5,5 0 0 1 6.0039067,3.4179694 1.5,1.5 0 0 1 7.5000006,2.0000006 1.5,1.5 0 0 1 8.9433599,3.0937504 5,5 0 0 1 13,7.9999999 a 5,5 0 0 1 -0.002,0.08594 1.5,1.5 0 0 1 1.001952,1.4140617 1.5,1.5 0 0 1 -1.5,1.5000003 1.5,1.5 0 0 1 -0.455079,-0.07227 A 5,5 0 0 1 8.0000001,13 Z m -2e-7,-1 A 4,4 0 0 0 11.248048,10.326173 1.5,1.5 0 0 1 11,9.4999997 a 1.5,1.5 0 0 1 0.0039,-0.060545 L 8.6269533,8.4882813 A 1.5,1.5 0 0 1 7.5000002,9 1.5,1.5 0 0 1 6.0878908,8 L 4.9121092,8 A 1.5,1.5 0 0 1 4.1015632,8.871094 4,4 0 0 0 7.9999999,12 Z M 11.375001,8.5117194 A 1.5,1.5 0 0 1 11.996094,8.089844 4,4 0 0 0 12,8.0000001 4,4 0 0 0 8.8730472,4.0996093 1.5,1.5 0 0 1 8.0000001,4.912109 l 1e-7,1.1757817 a 1.5,1.5 0 0 1 1,1.4121093 1.5,1.5 0 0 1 -0.00391,0.060548 L 11.375001,8.5117194 Z M 6.0878911,7.0000001 A 1.5,1.5 0 0 1 7.0000003,6.0878909 L 7,4.912109 A 1.5,1.5 0 0 1 6.2949224,4.3867194 4,4 0 0 0 4.3886724,6.2929689 1.5,1.5 0 0 1 4.9121058,7.0000021 l 1.1757853,-2e-6 z"/>
</svg>
